!!!SOCIAL_FUNCTION:	songs concerning the sacred stones
!!!PDT:	1918

Specific Region: Dakotas, Minnesota, Montana, Nebraska
!!!REG: Dakotas and Montana
!!!LING_GROUP: Siouan
!!!LANG: Tone
!!!OTL@ENG: Father, Behold Me
!!!ONM: No. 71
**kern
*Imale
*clefG2
*k[f#]
*M2/4
*>[A,A]
*>norep[A]
*>A
=!|:
*MM69
16g
=1
(32a
16.g)
16g
16g
4g
=2
16a
8.g
16a
8.e
=3
[2d
=4
4..d]
16e
*clefF4
=5||
*M3/4
(32e
16.d)
16e
16d
4..B
16G
=6||
*M2/4
16G
[8.G
4G_
=7
4..G]
16B
=8
(32B
16.G)
16G
16G
4G
=9
16B
8.G
8G
8F#
=10
([2F#
=11
4F#]
8.D)
16G
=12||
*M3/4
4G
(32A
16.G)
8G
(8G
8D)
=13
8D
[8D
8D]
[8D
4D]
=14||
*M2/4
2D
=15
4..D
==:|!
*-
!!!CNT: Native American -- Sioux
!!!MRD: 1911/07//-1914///
!!!OCL: Frances Densmore
!!!YOR1: Teton Sioux Music, Bulletin 61,
!!!YOR2: Bureau of American Ethnology, Smithsonian Institution
!!!PPR: Government Printing Office
!!!PPP: Washington, D.C.
!!!PDT: 1918///
!!!ENC: Craig Stuart Sapp
!!!END: 2002/03/25/
!!!EEV: 2002/03/31/
!!!AGN: Song of Personal Dreams/Song Concerning the Sacred Stones
!!!MPN@@SIO: Oku'te
!!!MPN@ENG: Shooter
!!!TXO: Teton Sioux
!!!MLC: Standing Rock Reservation, South Dakota, United States of America
!!!ARL: 45.9/-100.7#
!!!catalog: Catalogue No. 574
!!!PPG: 228
!!!EFL: 71/245
!!!VTS: 3043881385
